docs/assets/images/svg/button-arrow.svg

<svg width="25" height="8" viewBox="0 0 25 8" fill="none" xmlns="http://www.w3.org/2000/svg">
<path d="M0.646447 4.35355C0.451184 4.15829 0.451184 3.84171 0.646447 3.64645L3.82843 0.464466C4.02369 0.269204 4.34027 0.269204 4.53553 0.464466C4.7308 0.659728 4.7308 0.976311 4.53553 1.17157L1.70711 4L4.53553 6.82843C4.7308 7.02369 4.7308 7.34027 4.53553 7.53553C4.34027 7.7308 4.02369 7.7308 3.82843 7.53553L0.646447 4.35355ZM25 4.5H13V3.5H25V4.5ZM13 4.5H1V3.5H13V4.5Z" fill="#4F4F4F"/>
</svg>

<svg width="25" height="8" fill="none" xmlns="http://www.w3.org/2000/svg"><path d="M.646 4.354a.5.5 0 010-.708L3.828.464a.5.5 0 11.708.708L1.707 4l2.829 2.828a.5.5 0 11-.708.708L.646 4.354zM25 4.5H13v-1h12v1zm-12 0H1v-1h12v1z" fill="#4F4F4F"/></svg>
